X:69
T:Dutchess of Hamilton's Rant. Ru2.069, The
%%VWML:RutherfordVol2-2249-p35-0
F:http://www.vwml.org/record/RutherfordVol2/2249/p35
R:Rant
B:RUTHERFORD Complete Collection of 200 Country Dances Vol.2; 1759.
Z:vmp.Mike Hicken 2015 www.village-music-project.org.uk
N: The final symbol of dance notation in the original is :|
M:6/8
K:D
|:f|ecA def|ecA d2f|ecA ecA|BcB d2f|
ecA def|ecA d2e|faf edc|BcB d2 :|
|: f|ecA acA|ecA d2f|ecA acA|BcB d2f|
ecA acA|ecA d2e|faf edc|BcB d2 :|
W:
W: Foot it & cast off two Cu: .|  lead to the top
W: foot it & cast off :|  foot it corners then to your
W: partner ...|.  foot it the other corners then to your
W: partner .|. turn Corners with your Right hands
W: & partners with your left  Lead outsides &
W: turn :|
T:Swab the Decks. Ru2.070
L:1/8
B:RUTHERFORD Complete Collection of 200 Country Dances Vol.2; 1759.
Z:vmp.Mike Hicken 2015 www.village-music-project.org.uk
M:C|
K:G
GB- B(d/c/) BdBA|GB- B(d/c/) Bdgd|GB- B(d/c/) BdBA |ecBA G2 G,2 :|
|: Bd-dg dgdc|Bddg faAe|Bddg dgdB|ecBA G2G,2 :|
W:
W: The first Cu: foot it to the 2d Man & hands
W: round 3 .|  the same to the 2d Wo :|  Gallop down one
W: Cu: up again & cast off .|.  Right & left at top :|.
